modules/hawcons-filled/icons/icon-39-volleyball-water.svg

<?xml version="1.0" encoding="UTF-8" standalone="no"?>
<svg width="32px" height="32px" viewBox="0 0 32 32" version="1.1" xmlns="http://www.w3.org/2000/svg" xmlns:xlink="http://www.w3.org/1999/xlink" xmlns:sketch="http://www.bohemiancoding.com/sketch/ns">
    <!-- Generator: Sketch 3.0.3 (7891) - http://www.bohemiancoding.com/sketch -->
    <title>icon 39 volleyball water</title>
    <desc>Created with Sketch.</desc>
    <defs></defs>
    <g id="Page-1" stroke="none" stroke-width="1" fill="none" fill-rule="evenodd" sketch:type="MSPage">
        <g id="icon-39-volleyball-water" sketch:type="MSArtboardGroup" fill="#929292">
            <path d="M19.8555691,22.6716935 C21.2418909,21.1699406 22.3910854,19.4086222 23.2206204,17.4262238 C25.0952714,18.2633001 26.7851075,19.4398175 28.2120006,20.8776479 C28.240505,20.8014204 28.132646,21.0902606 28.0422026,21.3071911 C25.5273763,22.8860079 22.7740683,23.4876109 19.8555691,22.6716935 L19.8555691,22.6716935 L19.8555691,22.6716935 Z M18.7812124,22.3093905 C20.2291068,20.824673 21.4241453,19.0518637 22.2686849,17.0364943 C20.5506503,16.3953061 18.6970515,16.0322362 16.7626521,16.0020482 C15.8126971,17.5902824 14.6488596,18.9745671 13.3293459,20.1393059 C14.623291,20.3687002 15.9251729,20.8334446 17.2243154,21.5642122 C17.74775,21.8586442 18.2668442,22.106265 18.7812124,22.3093905 L18.7812124,22.3093905 L18.7812124,22.3093905 Z M11.1783596,19.9697034 C8.47798854,16.2312406 7.40981932,11.7491204 7.89417013,7.43411056 C7.92925415,7.40079613 7.46448013,7.85429614 7.2146292,8.13133883 C5.21643041,10.3470053 4.00000001,13.2814464 4.00000001,16.5 C4.00000001,18.3416734 4.3982823,20.090323 5.1134126,21.6645144 C7.06865757,20.6151605 9.10535969,20.0069753 11.1783596,19.9697034 L11.1783596,19.9697034 L11.1783596,19.9697034 Z M28.8014813,14.2689969 C25.2082251,10.8457504 20.1637816,9.03607557 14.9182196,9.71528005 C15.2218789,11.5241653 15.8343163,13.3114009 16.7755907,15.002126 C21.3391981,15.0725819 25.4789607,16.8899049 28.5557056,19.8149223 C28.5385917,19.8773035 28.6437364,19.4874751 28.7019557,19.2256942 C28.8970865,18.348297 29,17.4361669 29,16.5 C29,16.0199043 28.9729342,15.5461302 28.9202451,15.0801202 C28.8625213,14.5695803 28.7595905,14.0364847 28.8014813,14.2689969 L28.8014813,14.2689969 Z M28.3491437,12.5084199 C24.6490968,9.54214186 19.801116,8.04385679 14.7798484,8.69601999 C14.6194354,7.15261386 14.6797375,5.60369832 14.9484076,4.09535369 C14.8971387,4.1017011 15.1280006,4.07329239 15.2960447,4.05723314 C15.6922571,4.01936882 16.0938666,4 16.5,4 C21.7408495,4 26.2283914,7.22529277 28.0860139,11.7992663 C28.2302329,12.1543729 28.3914638,12.6340968 28.3491437,12.5084199 L28.3491437,12.5084199 Z M9.07757336,6.44128336 C8.26439308,10.9778103 9.29506545,15.8127771 12.2765512,19.7236176 C13.6816189,18.5598001 14.9150352,17.1423113 15.9031634,15.490882 C13.9289535,11.946184 13.3177562,8.00131694 13.9052145,4.26967026 C13.9367659,4.26300943 13.7288481,4.30745618 13.5945134,4.33943348 C12.1783944,4.67652941 10.8556838,5.25457612 9.67210101,6.02785435 C9.38846971,6.21316112 8.99961876,6.49890252 9.07757336,6.44128336 L9.07757336,6.44128336 Z M3.00000001,25.0002765 C3.43236755,24.6808784 3.90145718,24.366461 4.40449508,24.0662609 C8.43642716,21.6601079 12.8459287,21.1013697 17.2243154,23.5642122 C21.2454892,25.8261225 25.0104996,25.3253524 28.3445677,23.1119187 C28.9676127,22.6982892 29.5218456,22.2553569 30,21.8128626 L30,23.1351685 C29.658944,23.4118442 29.2911141,23.6838309 28.8976618,23.9450375 C25.2756119,26.3496576 21.1192781,26.9024762 16.7340541,24.4357878 C12.7121486,22.1734659 8.66913991,22.685765 4.91695259,24.9249735 C4.20432768,25.3502497 3.56383784,25.8059828 3.00635225,26.2609895 C3.00423059,26.2627211 3.00211317,26.2644502 3,26.2661767 L3.00000001,25.0002765 L3.00000001,25.0002765 L3.00000001,25.0002765 Z M5.97918473,26.2315158 C9.57096739,24.5663353 13.4094518,24.4183515 17.2243154,26.5642122 C20.7057597,28.5225247 23.9951911,28.4100099 26.9791847,26.9080898 L26.9791847,28.0171869 C23.8363841,29.4505192 20.3636203,29.4774188 16.7340541,27.4357878 C13.0890325,25.3854631 9.42667744,25.6141165 5.97918473,27.3418345 L5.97918473,26.2315158 L5.97918473,26.2315158 L5.97918473,26.2315158 Z" id="volleyball-water" sketch:type="MSShapeGroup"></path>
        </g>
    </g>
</svg>

<svg width="32" height="32" viewBox="0 0 32 32" xmlns="http://www.w3.org/2000/svg"><path d="M19.856 22.672a17.913 17.913 0 0 0 3.365-5.246 16.534 16.534 0 0 1 4.991 3.452c.029-.077-.08.212-.17.43-2.515 1.578-5.268 2.18-8.186 1.364zm-1.075-.363a16.883 16.883 0 0 0 3.488-5.273 16.453 16.453 0 0 0-5.506-1.034 17.467 17.467 0 0 1-3.434 4.137c1.294.23 2.596.694 3.895 1.425.524.295 1.043.542 1.557.745zm-7.603-2.34A17.948 17.948 0 0 1 7.894 7.435c.035-.033-.43.42-.68.697A12.454 12.454 0 0 0 4 16.5c0 1.842.398 3.59 1.113 5.165 1.956-1.05 3.992-1.658 6.065-1.695zm17.623-5.7c-3.593-3.423-8.637-5.233-13.883-4.554a16.453 16.453 0 0 0 1.858 5.287 17.439 17.439 0 0 1 11.78 4.813c-.017.062.088-.328.146-.59a12.544 12.544 0 0 0 .218-4.145c-.057-.51-.16-1.044-.119-.811zm-.452-1.76a17.957 17.957 0 0 0-13.57-3.813c-.16-1.543-.1-3.092.17-4.6-.052.006.179-.023.347-.039C15.692 4.02 16.094 4 16.5 4c5.24 0 9.728 3.225 11.586 7.8.144.354.305.834.263.708zM9.078 6.44a16.937 16.937 0 0 0 3.199 13.283 16.454 16.454 0 0 0 3.626-4.233A17.424 17.424 0 0 1 13.905 4.27c.032-.007-.176.037-.31.07a12.432 12.432 0 0 0-3.923 1.688c-.284.185-.672.47-.594.413zM3 25.001c.432-.32.901-.635 1.404-.935 4.032-2.406 8.442-2.965 12.82-.502 4.021 2.262 7.786 1.761 11.12-.452a13.166 13.166 0 0 0 1.656-1.3v1.323c-.341.277-.709.549-1.102.81-3.622 2.405-7.779 2.957-12.164.49-4.022-2.262-8.065-1.75-11.817.49A15.997 15.997 0 0 0 3 26.266V25zm2.98 1.23c3.591-1.665 7.43-1.813 11.244.333 3.482 1.959 6.771 1.846 9.755.344v1.11c-3.143 1.433-6.615 1.46-10.245-.582-3.645-2.05-7.307-1.822-10.755-.094v-1.11z" fill="#929292" fill-rule="evenodd"/></svg>
